packages/nouns-webapp/src/assets/icons/Address.svg

<svg width="20" height="20" viewBox="0 0 20 20" fill="none" xmlns="http://www.w3.org/2000/svg">
<path fill-rule="evenodd" clip-rule="evenodd" d="M6.11141 3.18218C6.78148 3.12868 7.41759 2.86512 7.92915 2.42904C8.50694 1.93694 9.24108 1.66667 10 1.66667C10.759 1.66667 11.4931 1.93694 12.0709 2.42904C12.5824 2.86512 13.2186 3.12868 13.8886 3.18218C14.6453 3.24265 15.3558 3.57069 15.8926 4.10747C16.4293 4.64425 16.7574 5.35468 16.8179 6.1114C16.871 6.7812 17.1345 7.41767 17.571 7.92914C18.0631 8.50692 18.3334 9.24106 18.3334 10C18.3334 10.759 18.0631 11.4931 17.571 12.0709C17.1349 12.5824 16.8714 13.2185 16.8179 13.8886C16.7574 14.6453 16.4293 15.3558 15.8926 15.8925C15.3558 16.4293 14.6453 16.7574 13.8886 16.8178C13.2186 16.8713 12.5824 17.1349 12.0709 17.571C11.4931 18.0631 10.759 18.3333 10 18.3333C9.24108 18.3333 8.50694 18.0631 7.92915 17.571C7.41759 17.1349 6.78148 16.8713 6.11141 16.8178C5.3547 16.7574 4.64427 16.4293 4.10749 15.8925C3.5707 15.3558 3.24267 14.6453 3.18219 13.8886C3.12869 13.2185 2.86514 12.5824 2.42905 12.0709C1.93695 11.4931 1.66669 10.759 1.66669 10C1.66669 9.24106 1.93695 8.50692 2.42905 7.92914C2.86514 7.41758 3.12869 6.78147 3.18219 6.1114C3.24267 5.35468 3.5707 4.64425 4.10749 4.10747C4.64427 3.57069 5.3547 3.24265 6.11141 3.18218ZM13.8615 8.65311C14.0513 8.45664 14.1563 8.19351 14.1539 7.92039C14.1515 7.64726 14.042 7.38599 13.8489 7.19285C13.6557 6.99972 13.3945 6.89016 13.1213 6.88779C12.8482 6.88542 12.5851 6.99041 12.3886 7.18017L8.95834 10.6104L7.61144 9.26354C7.41497 9.07378 7.15184 8.96879 6.87871 8.97116C6.60559 8.97354 6.34432 9.08309 6.15118 9.27622C5.95805 9.46936 5.84849 9.73063 5.84612 10.0038C5.84375 10.2769 5.94874 10.54 6.1385 10.7365L8.22187 12.8198C8.41721 13.0151 8.68212 13.1248 8.95834 13.1248C9.23455 13.1248 9.49946 13.0151 9.69481 12.8198L13.8615 8.65311Z" fill="currentColor"/>
</svg>

<svg xmlns="http://www.w3.org/2000/svg" width="20" height="20" fill="none">
    <path fill="currentColor" fill-rule="evenodd" d="M6.111 3.182A3.2 3.2 0 0 0 7.93 2.43a3.194 3.194 0 0 1 4.142 0 3.2 3.2 0 0 0 1.818.753 3.194 3.194 0 0 1 2.929 2.93 3.18 3.18 0 0 0 .753 1.817 3.194 3.194 0 0 1 0 4.142 3.2 3.2 0 0 0-.753 1.818 3.194 3.194 0 0 1-2.93 2.929 3.2 3.2 0 0 0-1.817.753 3.194 3.194 0 0 1-4.142 0 3.2 3.2 0 0 0-1.818-.753 3.19 3.19 0 0 1-2.929-2.93 3.2 3.2 0 0 0-.753-1.817 3.194 3.194 0 0 1 0-4.142 3.2 3.2 0 0 0 .753-1.818 3.194 3.194 0 0 1 2.93-2.929m7.75 5.471A1.041 1.041 0 0 0 12.39 7.18l-3.43 3.43-1.35-1.346a1.042 1.042 0 0 0-1.473 1.473l2.084 2.083a1.04 1.04 0 0 0 1.473 0z" clip-rule="evenodd"/>
</svg>
